public/img/lock-svg.svg

<svg width="41" height="54" viewBox="0 0 41 54" fill="none" xmlns="http://www.w3.org/2000/svg">
<path d="M17.5914 37.369L16.8817 43.7509C16.8466 44.0684 16.9487 44.387 17.1618 44.6254C17.375 44.8638 17.6804 45.0001 18.0001 45.0001H22.5001C22.8198 45.0001 23.1252 44.8638 23.3384 44.6254C23.5515 44.3871 23.6537 44.0685 23.6185 43.7509L22.9088 37.369C24.0613 36.5307 24.7501 35.2047 24.7501 33.75C24.7501 31.2682 22.7319 29.25 20.25 29.25C17.7681 29.25 15.75 31.2682 15.75 33.75C15.75 35.2047 16.4389 36.5307 17.5914 37.369ZM20.25 31.5001C21.4904 31.5001 22.5 32.5097 22.5 33.75C22.5 34.6125 22.01 35.3848 21.2212 35.7671C20.7916 35.9758 20.5401 36.4307 20.5928 36.9042L21.2432 42.75H19.2569L19.9074 36.9042C19.9601 36.4306 19.7086 35.9758 19.279 35.7671C18.4902 35.3848 18.0002 34.6125 18.0002 33.75C18.0001 32.5097 19.0097 31.5001 20.25 31.5001Z" fill="url(#paint0_radial)"/>
<path d="M39.375 20.25H36V15.75C36 7.06535 28.9347 0 20.25 0C11.5653 0 4.50004 7.06535 4.50004 15.75V20.25H1.12504C0.503191 20.25 0 20.7532 0 21.375V49.5001C0 51.9819 2.01814 54 4.50004 54H36.0001C38.4819 54 40.5 51.9819 40.5 49.5V21.375C40.5 20.7532 39.9968 20.25 39.375 20.25ZM6.75 15.75C6.75 8.30566 12.8057 2.24996 20.25 2.24996C27.6943 2.24996 33.75 8.30566 33.75 15.75V20.25H31.5V15.75C31.5 9.54703 26.4529 4.49993 20.25 4.49993C14.0471 4.49993 8.99996 9.54714 8.99996 15.75V20.25H6.75V15.75ZM29.25 15.75V20.25H11.25V15.75C11.25 10.7874 15.2875 6.75 20.25 6.75C25.2125 6.75 29.25 10.7874 29.25 15.75ZM38.25 49.5C38.25 50.7403 37.2404 51.7499 36.0001 51.7499H4.50004C3.25972 51.7499 2.25007 50.7403 2.25007 49.5V22.5H38.25V49.5Z" fill="url(#paint1_radial)"/>
<defs>
<radialGradient id="paint0_radial" cx="0" cy="0" r="1" gradientUnits="userSpaceOnUse" gradientTransform="translate(22.6153 36.1894) scale(7.22109 29.0032)">
<stop stop-color="#16C940"/>
<stop offset="0.3403" stop-color="#0D9733"/>
<stop offset="0.7565" stop-color="#045F24"/>
<stop offset="0.9578" stop-color="#00491E"/>
</radialGradient>
<radialGradient id="paint1_radial" cx="0" cy="0" r="1" gradientUnits="userSpaceOnUse" gradientTransform="translate(30.8934 23.792) scale(32.4946 99.4391)">
<stop stop-color="#16C940"/>
<stop offset="0.3403" stop-color="#0D9733"/>
<stop offset="0.7565" stop-color="#045F24"/>
<stop offset="0.9578" stop-color="#00491E"/>
</radialGradient>
</defs>
</svg>

<svg width="41" height="54" viewBox="0 0 41 54" fill="none" xmlns="http://www.w3.org/2000/svg"><path d="M17.591 37.369l-.71 6.382a1.128 1.128 0 001.12 1.25h4.5a1.125 1.125 0 001.117-1.25l-.71-6.382a4.45 4.45 0 001.842-3.619c0-2.482-2.018-4.5-4.5-4.5a4.504 4.504 0 00-4.5 4.5 4.45 4.45 0 001.841 3.619zM20.25 31.5c1.24 0 2.25 1.01 2.25 2.25 0 .862-.49 1.635-1.279 2.017-.43.209-.68.664-.628 1.137l.65 5.846h-1.986l.65-5.846a1.126 1.126 0 00-.628-1.137A2.232 2.232 0 0118 33.75c0-1.24 1.01-2.25 2.25-2.25z" fill="url(#paint0_radial)"/><path d="M39.375 20.25H36v-4.5C36 7.065 28.935 0 20.25 0 11.565 0 4.5 7.065 4.5 15.75v4.5H1.125C.503 20.25 0 20.753 0 21.375V49.5C0 51.982 2.018 54 4.5 54H36c2.482 0 4.5-2.018 4.5-4.5V21.375c0-.622-.503-1.125-1.125-1.125zM6.75 15.75c0-7.444 6.056-13.5 13.5-13.5s13.5 6.056 13.5 13.5v4.5H31.5v-4.5c0-6.203-5.047-11.25-11.25-11.25S9 9.547 9 15.75v4.5H6.75v-4.5zm22.5 0v4.5h-18v-4.5c0-4.963 4.037-9 9-9 4.962 0 9 4.037 9 9zm9 33.75c0 1.24-1.01 2.25-2.25 2.25H4.5c-1.24 0-2.25-1.01-2.25-2.25v-27h36v27z" fill="url(#paint1_radial)"/><defs><radialGradient id="paint0_radial" cx="0" cy="0" r="1" gradientUnits="userSpaceOnUse" gradientTransform="matrix(7.22109 0 0 29.0032 22.615 36.19)"><stop stop-color="#16C940"/><stop offset=".34" stop-color="#0D9733"/><stop offset=".756" stop-color="#045F24"/><stop offset=".958" stop-color="#00491E"/></radialGradient><radialGradient id="paint1_radial" cx="0" cy="0" r="1" gradientUnits="userSpaceOnUse" gradientTransform="matrix(32.4946 0 0 99.4391 30.893 23.792)"><stop stop-color="#16C940"/><stop offset=".34" stop-color="#0D9733"/><stop offset=".756" stop-color="#045F24"/><stop offset=".958" stop-color="#00491E"/></radialGradient></defs></svg>
